!!!OTL: Das Kirchlein.
!!!OTL-incipit:O SEHET DOCH WIE FEIN UND HOLD
!!!COM: A. Harder
!!!ARE: Europa, Mitteleuropa, Deutschland
!!!SCT: F0269
!!!TXL: @@DE
!!!YEM: Copyright 1995, estate of Helmut Schaffrath.
**kern	**text
*ICvox	*
*clefG2	*
*M6/8	*
*k[f#c#]	*
*D:	*
!LO:TX:a:t=Maessig.	!
{8a	1._O
=1	=1
4dd	ſe-
8dd	-het
4a	doch,
8a	wie
=2	=2
4f#	fein
8g	und
4a}	hold
{8f#	dort
=3	=3
4b	un-
8a	-ſer
(8aL	Kirchlein
8gJ)	.
8f#	.
=4	=4
4.f#	ſtrah-
4e}	-let,
{8a	rings
=5	=5
4dd	von
8dd	der
4a	A-
8a	-bend-
=6	=6
4f#	-ſon-
8g	-ne
4a}	Gold
{8a	um
=7	=7
(8aL	floſſen
8g#J)	.
8g#	.
(8ddL	und
8bJ)	.
8g#	be-
=8	=8
4.b	-ma-
4a}	-let!
{8a	Wie
=9	=9
4b	iſt's
8f#	ſo
4e	ſtill
8f#	und
=10	=10
4g	leis'
8a	umher!
4g}	.
{8e	Kein
=11	=11
8.cc#L	ſolch'
16bJ	.
8cc#	ein
4dd	Kirchlein
8f#	.
=12	=12
4e	giebt's
8a	nicht
4d}	mehr.
==	==
!!!AGN: Jugend - Lied, Belehrung, religioes
!!!ONB: ESAC (Essen Associative Code) Database: FINK
!!!AMT: compound duple
!!!AIN: vox
!!!EED: Helmut Schaffrath
!!!EEV: 1.0
!!!GTL: Jugendlieder
!!Text: F. A. Krummacher
!!!source: Musikalischer Hausschatz der Deutschen. Eine Sammlung von über 1000 Liedern und Gesängen mit Singstimmen und Klavierbegleitung. Leipzig, Litterarisches Verlags-Haus.
!!!page: 161
!!!URL-scan: https://www.digitale-sammlungen.de/en/view/bsb11144622?page=158,159
!!!ENC: Anna Maria Matuszewska
!!!EEV: 2024/29/07
*-	*-
